X:115
T: Anderson's
M: 4/4
L: 1/8
R: Reel
K: D
f|ABdf e2dB|AF (3FEF EFDF|ABdf e2df|afeg fdd2|
ABdf e2dB|AF (3FEF EFDF|ABdf e2df|afef d3 ||
f|a2fa bafa|a2fd edBd|a2fa bafb|afef d3 f|
a2fa bafa|a2fd edBd|(3ABA FB ABdf|afef d3 ||
